icons/src/svg/notification_inactive.svg

<svg width="32" height="32" viewBox="0 0 32 32" fill="none" xmlns="http://www.w3.org/2000/svg">
<path d="M26 21.7573V14C26 8.81437 22.0529 4.55065 16.9992 4.04927V3C16.9992 2.44772 16.5515 2 15.9992 2C15.4469 2 14.9992 2.44772 14.9992 3V4.04942C13.195 4.22868 11.5319 4.88747 10.1392 5.89653L11.5761 7.33341C12.8432 6.49088 14.3642 5.99997 15.9999 5.99997C20.4182 5.99997 24 9.58169 24 14V19.7573L26 21.7573Z" fill="#0D0F13"/>
<path d="M8.15953 12.4013C8.05488 12.9176 7.99995 13.4519 7.99995 13.9991V23.9991H19.7574L21.7574 25.9991H5C4.44772 25.9991 4 25.5514 4 24.9991C4 24.4468 4.44772 23.9991 5 23.9991H5.99995V13.9991C5.99995 12.8704 6.18694 11.7854 6.53162 10.7734L8.15953 12.4013Z" fill="#0D0F13"/>
<path d="M13.9999 28C13.4477 28 12.9999 28.4477 12.9999 29C12.9999 29.5523 13.4477 30 13.9999 30H17.9999C18.5522 30 19 29.5523 19 29C19 28.4477 18.5522 28 17.9999 28H13.9999Z" fill="#0D0F13"/>
<path fill-rule="evenodd" clip-rule="evenodd" d="M2.29289 2.29289C2.68342 1.90237 3.31658 1.90237 3.70711 2.29289L29.7071 28.2929C30.0976 28.6834 30.0976 29.3166 29.7071 29.7071C29.3166 30.0976 28.6834 30.0976 28.2929 29.7071L2.29289 3.70711C1.90237 3.31658 1.90237 2.68342 2.29289 2.29289Z" fill="#0D0F13"/>
</svg>

<?xml version="1.0" encoding="utf-8"?>
<!-- Generator: Adobe Illustrator 26.0.1, SVG Export Plug-In . SVG Version: 6.00 Build 0)  -->
<svg version="1.1" id="Layer_1" xmlns="http://www.w3.org/2000/svg" xmlns:xlink="http://www.w3.org/1999/xlink" x="0px" y="0px"
	 viewBox="0 0 32 32" style="enable-background:new 0 0 32 32;" xml:space="preserve">
<style type="text/css">
	.st0{fill:#0D0F13;}
</style>
<path class="st0" d="M26,21.8V14c0-5.2-3.9-9.4-9-10V3c0-0.6-0.4-1-1-1c-0.6,0-1,0.4-1,1v1c-1.8,0.2-3.5,0.8-4.9,1.8l1.4,1.4
	C12.8,6.5,14.4,6,16,6c4.4,0,8,3.6,8,8v5.8L26,21.8z M8.2,12.4C8.1,12.9,8,13.5,8,14v10h11.8l2,2H5c-0.6,0-1-0.4-1-1s0.4-1,1-1h1V14
	c0-1.1,0.2-2.2,0.5-3.2L8.2,12.4z M14,28c-0.6,0-1,0.4-1,1s0.4,1,1,1h4c0.6,0,1-0.4,1-1s-0.4-1-1-1H14z M2.3,2.3
	c0.4-0.4,1-0.4,1.4,0l26,26c0.4,0.4,0.4,1,0,1.4c-0.4,0.4-1,0.4-1.4,0l-26-26C1.9,3.3,1.9,2.7,2.3,2.3z"/>
</svg>
